packages/assets/application-icons/26.Users.svg

<?xml version="1.0" encoding="UTF-8"?>
<svg width="24px" height="24px" viewBox="0 0 24 24" version="1.1" xmlns="http://www.w3.org/2000/svg" xmlns:xlink="http://www.w3.org/1999/xlink">
    <title>26.Users</title>
    <g id="Page-1" stroke="none" stroke-width="1" fill="none" fill-rule="evenodd">
        <g id="Artboard" transform="translate(-100.000000, -237.000000)" fill="#000000" fill-rule="nonzero">
            <g id="26.Users" transform="translate(100.000000, 237.000000)">
                <path d="M10.05,5.11518898 C13.71,5.11518898 13.05,9.3148225 13.05,9.3148225 C13.05,9.3148225 13.57,9.3148225 13.57,9.98224592 C13.5252482,10.5765005 13.1796809,11.1028972 12.66,11.368433 C12.6019655,11.7303741 12.4799587,12.0783665 12.3,12.3952383 C12.04,12.8470326 11.63,13.1550742 11.63,13.6171365 C11.63,14.0791989 11.89,14.294828 12.63,14.6439418 C13.37,14.9930556 13.87,15.1881486 14.56,15.5167263 C15.2003067,15.7524411 15.7835683,16.1271889 16.27,16.6154079 C16.7517929,17.3644768 17.0058847,18.2436834 17.0000999,19.1413488 C16.7953558,20.9179607 10.9141162,20.9975996 10.0944747,21.0000644 L10,21 C10,21 9.99617347,21 9.98869925,20.9999746 L9.90151239,20.9993152 C9.06887755,20.9904123 3.23214286,20.8657723 3,19.1208127 C3.00996614,18.2275253 3.28177514,17.3580373 3.78,16.6256759 C4.26484029,16.1353838 4.84857336,15.7603331 5.49,15.5269943 C6.17,15.1984166 6.68,15.0238597 7.42,14.6542098 C8.16,14.28456 8.42,14.0381267 8.42,13.6274046 C8.42,13.2166825 8,12.8573006 7.75,12.4055063 C7.57004133,12.0886345 7.44803448,11.7406421 7.39,11.3787011 C6.87031914,11.1131653 6.52475176,10.5867685 6.48,9.99251397 C6.48,9.32509055 7,9.32509055 7,9.32509055 L7,9.32509055 L6.99694173,9.30190789 C6.95502836,8.96697038 6.54913043,5.11518898 10.05,5.11518898 Z M13.8091935,3.00032842 L14,3.0102382 C17.66,3.0102382 17,7.20987171 17,7.20987171 C17,7.20987171 17.52,7.20987171 17.52,7.87729513 C17.4752482,8.47154969 17.1296809,8.99794644 16.61,9.26348223 C16.5519655,9.62542329 16.4299587,9.9734157 16.25,10.2902875 C15.99,10.7420818 15.58,11.0501234 15.58,11.5121858 C15.58,11.9742481 15.84,12.1898772 16.58,12.538991 C17.32,12.8881048 17.82,13.0831978 18.51,13.4117755 C19.1503067,13.6474903 19.7335683,14.0222381 20.22,14.5104571 C20.715697,15.2479509 20.9871513,16.1198776 21,17.0158619 C20.87,17.8578423 19.47,18.3199046 18,18.5663379 C17.9534131,17.6575168 17.6626729,16.7796861 17.16,16.0301289 C16.603914,15.4334261 15.9187382,14.9796415 15.16,14.7055501 L15.16,14.7055501 L15.05,14.6542098 L13.98,14.1613433 C13.71,14.0483947 13.43,13.9251781 13.11,13.7711573 C12.9896712,13.7210548 12.8727433,13.6627388 12.76,13.5966004 L12.76,13.5966004 L12.84,13.4836519 C12.9715883,13.3142112 13.0918628,13.1358244 13.2,12.9497131 C13.3587558,12.6615211 13.4829908,12.3546752 13.57,12.0358564 C14.1970535,11.5489599 14.5668834,10.7894733 14.57,9.98224592 C14.5828771,9.52496183 14.4172661,9.08135255 14.11,8.7500796 C14.1807136,7.55013042 13.8254382,6.36453484 13.11,5.41296251 C12.6741208,4.89390362 12.10096,4.5158212 11.46,4.32454893 C11.9967336,3.42876821 12.9794718,2.92025509 14,3.0102382 Z" id="Users"></path>
            </g>
        </g>
    </g>
</svg>

<svg width="24" height="24" viewBox="0 0 24 24" xmlns="http://www.w3.org/2000/svg"><path d="M10.05 5.115c3.66 0 3 4.2 3 4.2s.52 0 .52.667a1.696 1.696 0 0 1-.91 1.386 3.06 3.06 0 0 1-.36 1.027c-.26.452-.67.76-.67 1.222 0 .462.26.678 1 1.027.74.35 1.24.544 1.93.873.64.235 1.224.61 1.71 1.098.482.75.736 1.629.73 2.526-.205 1.777-6.086 1.857-6.906 1.86L10 21H9.902c-.833-.01-6.67-.134-6.902-1.88.01-.892.282-1.762.78-2.494a4.634 4.634 0 0 1 1.71-1.099c.68-.329 1.19-.503 1.93-.873s1-.616 1-1.027c0-.41-.42-.77-.67-1.221a3.06 3.06 0 0 1-.36-1.027 1.696 1.696 0 0 1-.91-1.386c0-.668.52-.668.52-.668l-.003-.023c-.042-.335-.448-4.187 3.053-4.187ZM13.81 3l.19.01c3.66 0 3 4.2 3 4.2s.52 0 .52.667a1.696 1.696 0 0 1-.91 1.386 3.06 3.06 0 0 1-.36 1.027c-.26.452-.67.76-.67 1.222 0 .462.26.678 1 1.027.74.35 1.24.544 1.93.873.64.235 1.224.61 1.71 1.098.496.738.767 1.61.78 2.506-.13.842-1.53 1.304-3 1.55a5.016 5.016 0 0 0-.84-2.536 5.108 5.108 0 0 0-2-1.324l-.11-.052-1.07-.493c-.27-.113-.55-.236-.87-.39a2.878 2.878 0 0 1-.35-.174l.08-.113c.132-.17.252-.348.36-.534.159-.288.283-.595.37-.914a2.612 2.612 0 0 0 1-2.054 1.74 1.74 0 0 0-.46-1.232 5.062 5.062 0 0 0-1-3.337 3.442 3.442 0 0 0-1.65-1.088A2.69 2.69 0 0 1 14 3.01Z" fill="#000" fill-rule="nonzero"/></svg>
